X:324
T:Miss Elizabeth Mag. Fordyce
R:Strathspey
C:4 x 32 Strathspey 1,2,3,  1
S:Barbara Bouwsma
M:4/4
L:1/8
K:A
|:E| "A" A>GA<B "E" G<EE>G | "A" A>E A/c/e/c/ "E" B2 B>c | "D" d>cd<f "A"e<cB>A | "Bm" F>B "E" A/G/F/E/ "A"  A2 A E |!
| "A" A>GA<B "E" G<EE>G | "A" A>E A/c/e/c/ "E" B2 B>c | "D" d>cd<f "A"e<cB>A | "Bm" F>B "E" A/G/F/E/ "A"  A2 A |!
|g| "A" a/g/f/e/ a>c "D" d<BG>E | "A" A>ce<a  c>ea>c | "D-A" d<fc<e "E"B>AG<E | " Bm-E" F>d c/B/A/G/ "A" A2 A>g |!
| "A" a/g/f/e/ a>c "D" d<BG>E | "A" A>ce<a  c<ea>c | "Bm - A" d<bc<a "E"B>AG<E | " Bm-E" F>d c/B/A/G/ "A" A2 A:||
